src/assets/icons/letters,simple,sans-b.svg

<svg width="48" height="48" viewBox="0 0 48 48" fill="none" xmlns="http://www.w3.org/2000/svg">
<rect opacity="0.2" x="5" y="5" width="38" height="38" rx="4" fill="black"/>
<path d="M15.712 36H25.3444C30.4083 36 33.1054 33.358 33.1054 29.7692C33.1054 26.4336 30.7166 24.419 28.1516 24.2979V24.0778C30.4964 23.5494 32.2247 21.8871 32.2247 19.234C32.2247 15.8544 29.7148 13.4545 24.7389 13.4545H15.712V36ZM20.4786 32.103V26.1143H24.4747C26.7645 26.1143 28.1846 27.4354 28.1846 29.2958C28.1846 30.9911 27.0287 32.103 24.3647 32.103H20.4786ZM20.4786 22.8888V17.3075H24.1005C26.2141 17.3075 27.414 18.3974 27.414 20.0266C27.414 21.81 25.9609 22.8888 24.0124 22.8888H20.4786Z" fill="black"/>
</svg>

<svg xmlns="http://www.w3.org/2000/svg" width="48" height="48" fill="none" viewBox="0 0 48 48">
  <rect width="38" height="38" x="5" y="5" fill="#000" opacity=".2" rx="4"/>
  <path fill="#000" d="M15.712 36h9.632c5.064 0 7.761-2.642 7.761-6.23 0-3.336-2.388-5.351-4.953-5.472v-.22c2.344-.529 4.073-2.19 4.073-4.844 0-3.38-2.51-5.78-7.486-5.78h-9.027V36zm4.767-3.897v-5.989h3.996c2.29 0 3.71 1.321 3.71 3.182 0 1.695-1.156 2.807-3.82 2.807h-3.886zm0-9.214v-5.581H24.1c2.113 0 3.313 1.09 3.313 2.719 0 1.783-1.453 2.862-3.402 2.862H20.48z"/>
</svg>
